24x24/actions/view-sort-ascending-name.svg

<svg viewBox="0 0 24 24" xmlns="http://www.w3.org/2000/svg"><path d="m8.096 4c-.784.018-1.385.155-1.823.355l.247.9c.209-.072 1.002-.325 1.466-.325h.063c.646.027.693.262.693.818v.219l-.338.054c-1.566.229-2.404.42-2.404 1.622 0 .837.61 1.357 1.494 1.357.61 0 1.01-.255 1.42-.602l.127.51h.967v-3.368c0-1.03-.712-1.54-1.805-1.54zm.646 2.678v1.119c-.337.228-.592.392-1.03.392-.39 0-.583-.245-.583-.591 0-.656.574-.765 1.275-.866zm5.758 3.115-.207.207-3.293 3.293.707.707 2.293-2.293v8.293h1v-8.293l2.293 2.293.707-.707-3.293-3.293zm-8.389.406v.815h2.073l-2.184 3.256v.73h3.828v-.852h-2.246l2.174-3.29v-.659h-3.646z" fill="#8b9cbe"/></svg>

<svg viewBox="0 0 24 24" xmlns="http://www.w3.org/2000/svg">
    <path d="M8.096 4c-.784.018-1.385.155-1.823.355l.247.9c.209-.072 1.002-.325 1.466-.325h.063c.646.027.693.262.693.818v.219l-.338.054C6.838 6.25 6 6.441 6 7.643 6 8.48 6.61 9 7.494 9c.61 0 1.01-.255 1.42-.602l.127.51h.967V5.54c0-1.03-.712-1.54-1.805-1.54zm.646 2.678v1.119c-.337.228-.592.392-1.03.392-.39 0-.583-.245-.583-.591 0-.656.574-.765 1.275-.866zM14.5 9.793l-.207.207L11 13.293l.707.707L14 11.707V20h1v-8.293L17.293 14l.707-.707L14.707 10zm-8.389.406v.815h2.073L6 14.27V15h3.828v-.852H7.582l2.174-3.29v-.659H6.11z" fill="#8b9cbe"/>
</svg>
